img/svgicons/phone.svg

<svg width="14" height="14" viewBox="0 0 14 14" fill="none" xmlns="http://www.w3.org/2000/svg">
<path d="M13.971 10.8474C13.9314 10.7281 13.6794 10.5524 13.2154 10.3206C13.0896 10.2475 12.9105 10.1482 12.6787 10.0222C12.4467 9.89627 12.2361 9.7802 12.0473 9.67412C11.8581 9.56807 11.6809 9.46533 11.5153 9.36605C11.4888 9.34616 11.406 9.28825 11.2668 9.19192C11.1274 9.09587 11.0099 9.02458 10.9136 8.97808C10.8175 8.93187 10.723 8.90861 10.6302 8.90861C10.4977 8.90861 10.3321 9.00312 10.1333 9.19192C9.93453 9.38095 9.75218 9.58629 9.58655 9.80855C9.42088 10.0307 9.24518 10.236 9.05977 10.425C8.87408 10.614 8.72151 10.7084 8.60233 10.7084C8.5425 10.7084 8.4679 10.6917 8.3785 10.6588C8.28914 10.6257 8.22116 10.5973 8.17449 10.5744C8.12824 10.551 8.04887 10.5048 7.93611 10.435C7.82313 10.3653 7.76031 10.3272 7.74707 10.3206C6.83898 9.81666 6.06017 9.23994 5.41049 8.59054C4.76102 7.94076 4.18423 7.16201 3.68047 6.25382C3.67385 6.24055 3.63565 6.17755 3.5661 6.06492C3.49645 5.95219 3.45003 5.87275 3.42683 5.82622C3.40364 5.77987 3.37546 5.71189 3.34238 5.62242C3.30929 5.53295 3.29268 5.45843 3.29268 5.3987C3.29268 5.27945 3.38717 5.12692 3.5761 4.94129C3.76499 4.75577 3.97054 4.58004 4.19252 4.41444C4.41467 4.24885 4.62001 4.0665 4.80897 3.86771C4.99787 3.66882 5.09232 3.50319 5.09232 3.37064C5.09232 3.2779 5.06912 3.18334 5.02277 3.08726C4.97638 2.99097 4.90513 2.87346 4.80897 2.73419C4.71278 2.59499 4.6548 2.51221 4.63488 2.48557C4.53555 2.31997 4.43292 2.14267 4.32674 1.95374C4.22055 1.76484 4.10465 1.55429 3.97865 1.32231C3.85275 1.09044 3.7534 0.911398 3.6804 0.785467C3.44853 0.321549 3.2729 0.0695476 3.15355 0.0299156C3.10713 0.0100299 3.03748 0 2.94477 0C2.76569 0 2.53208 0.0330847 2.24376 0.0994632C1.95533 0.165737 1.72837 0.23525 1.56263 0.30828C1.23119 0.44741 0.8799 0.851741 0.508654 1.52113C0.170598 2.1441 0.00158691 2.7607 0.00158691 3.37046C0.00158691 3.5493 0.013184 3.72329 0.0363781 3.89247C0.0595723 4.06148 0.101015 4.25209 0.160742 4.46425C0.220364 4.67634 0.268459 4.83389 0.304817 4.93649C0.34121 5.03915 0.409156 5.22307 0.508619 5.48831C0.607943 5.75347 0.66767 5.9158 0.687555 5.97545C0.919532 6.6251 1.19462 7.20506 1.51276 7.7155C2.03619 8.56393 2.75051 9.44075 3.65529 10.3456C4.56011 11.2504 5.43675 11.9647 6.28525 12.4883C6.79563 12.8064 7.37579 13.0815 8.02533 13.3136C8.08502 13.3334 8.24735 13.393 8.51241 13.4927C8.77758 13.592 8.96156 13.66 9.06423 13.6965C9.16693 13.733 9.32452 13.7811 9.53643 13.8408C9.7488 13.9005 9.93923 13.942 10.1082 13.9653C10.2774 13.9882 10.4514 14 10.6302 14C11.24 14 11.8566 13.8309 12.4797 13.4929C13.149 13.1218 13.5532 12.7704 13.6924 12.4387C13.7656 12.2732 13.835 12.0462 13.9013 11.7577C13.9677 11.4694 14.0007 11.2359 14.0007 11.0568C14.001 10.9637 13.991 10.8942 13.971 10.8474Z" fill="#337D5A"/>
</svg>

<svg width="14" height="14" fill="none" xmlns="http://www.w3.org/2000/svg"><path d="M13.971 10.847c-.04-.119-.292-.295-.756-.526a23.334 23.334 0 0 0-.536-.299 49.776 49.776 0 0 1-.632-.348c-.189-.106-.366-.209-.532-.308-.026-.02-.109-.078-.248-.174a2.8 2.8 0 0 0-.353-.214.651.651 0 0 0-.284-.07c-.132 0-.298.095-.497.284a4.842 4.842 0 0 0-.546.617 6.004 6.004 0 0 1-.527.616c-.186.189-.338.283-.458.283a.677.677 0 0 1-.223-.05 2.307 2.307 0 0 1-.205-.084 3.735 3.735 0 0 1-.238-.139 5.827 5.827 0 0 0-.189-.114A10.45 10.45 0 0 1 5.41 8.59a10.443 10.443 0 0 1-1.73-2.337 5.762 5.762 0 0 0-.114-.19 3.588 3.588 0 0 1-.14-.238 2.154 2.154 0 0 1-.084-.204.673.673 0 0 1-.05-.223c0-.12.095-.272.284-.458.189-.185.395-.361.617-.527.222-.165.427-.348.616-.546.189-.2.283-.365.283-.497a.65.65 0 0 0-.07-.284 2.764 2.764 0 0 0-.213-.353c-.096-.139-.154-.222-.174-.248-.1-.166-.202-.343-.308-.532-.106-.19-.222-.4-.348-.632-.126-.232-.226-.41-.299-.537C3.45.322 3.273.07 3.154.03a.557.557 0 0 0-.21-.03c-.178 0-.412.033-.7.1a3.938 3.938 0 0 0-.681.208C1.23.448.88.852.509 1.521c-.338.623-.507 1.24-.507 1.85 0 .178.011.352.034.521.024.17.065.36.125.572.06.212.107.37.144.472.036.103.104.287.204.552.099.265.159.428.179.487.232.65.507 1.23.825 1.74.523.849 1.238 1.726 2.142 2.63.905.905 1.782 1.62 2.63 2.143.51.318 1.09.594 1.74.826.06.02.222.079.487.179l.552.204c.103.036.26.084.472.144.213.06.403.101.572.124.17.023.343.035.522.035.61 0 1.227-.17 1.85-.507.669-.371 1.073-.723 1.212-1.054.074-.166.143-.393.21-.681.066-.289.099-.522.099-.701a.553.553 0 0 0-.03-.21Z" fill="#337D5A"/></svg>
